X:1
T:Title
%%score [ 1 ]
L:1/8
Q:1/4=120
M:4/4
K:Ab
V:1 treble nm="Midi_75"
V:1
"^Adagio, a 4 voci""^Text: F. v. Logau""^(1605-1655)" F4 A2 F2 | d8- | %2
w: Tod ist ein|lan-|
 d4 c2"^Tod und Schlaf""^(Hob XXVIIb:21: Kanon (4st.))" B2 |"^2" A4 z4 | f4 f2 f2 | %5
w: * ger *|Schlaf,|Schlaf ist ein|
 =e2"^Joseph Haydn""^1732 - 1809" e2 e2 e2 |[M:4/4]"^3" f2 c2 c2 c2 | c2 c2 B2 A2 | G2 G2 G2 G2 | %9
w: kur- zer, kur \-zer|Tod. Die Not, die|lin- dert der, und|je- ner tilgt die|
"^4" A2 F2 F2 F2 | B,6 B,2 | C8 || %12
w: Not. Tod ist ein|lan- ger|Schlaf.|

